X: 444
P: Longways for as many as will
M: C|
L: 1/8
K: G
d2 |\
g2G2 Bcd2 | d3e =f2A2 | ABc2 c3d | efge d3c | BcdB A3G | FGAB (AF) (ED) | D6 :: A2 | ABD2 F2A2 |

